assets/icons/24px/stroke/graph-line-up-24px.svg

<svg width="24" height="24" viewBox="0 0 24 24" fill="none" xmlns="http://www.w3.org/2000/svg">
<path fill-rule="evenodd" clip-rule="evenodd" d="M3 2C3.55229 2 4 2.44772 4 3V17C4 17.9711 4.00213 18.5988 4.06431 19.0613C4.12263 19.495 4.21677 19.631 4.2929 19.7071C4.36902 19.7832 4.50497 19.8774 4.93871 19.9357C5.40121 19.9979 6.02893 20 7 20H21C21.5523 20 22 20.4477 22 21C22 21.5523 21.5523 22 21 22L6.9342 22C6.0477 22.0001 5.28388 22.0001 4.67221 21.9179C4.0167 21.8297 3.38835 21.631 2.87868 21.1213C2.36902 20.6117 2.17028 19.9833 2.08215 19.3278C1.99991 18.7161 1.99995 17.9523 2 17.0658L2 3C2 2.44772 2.44772 2 3 2ZM20.1483 2.51106C20.6945 2.59299 21.0709 3.10217 20.9889 3.64834L20.1354 9.33862C20.1353 9.33945 20.1352 9.34026 20.135 9.34108M20.1483 2.51106C19.6022 2.42914 19.093 2.80549 19.0111 3.35166ZM19.0111 3.35166L18.1572 9.0444ZM13.5445 7.60915C14.1459 7.0919 14.9962 6.97902 15.7118 7.32143C16.1134 7.51359 16.3753 7.86396 16.5492 8.12114C16.7354 8.39638 16.9455 8.76403 17.1881 9.18861L17.2069 9.22146C17.207 9.22174 17.2067 9.22119 17.2069 9.22146C17.5128 9.75691 17.7156 10.1104 17.8767 10.3502C17.8933 10.3749 17.9086 10.3971 17.9226 10.4169C17.9285 10.3933 17.9348 10.3671 17.9413 10.3381C18.0047 10.0565 18.0655 9.65525 18.1568 9.04656M14.8572 9.19055C14.868 9.20578 14.8799 9.2228 14.8927 9.24176C15.0311 9.44635 15.2035 9.7466 15.4709 10.2146C15.4711 10.2149 15.4713 10.2153 15.4715 10.2157M14.8572 9.19055C14.8507 9.20808 14.8437 9.22759 14.8363 9.24925C14.7561 9.48286 14.668 9.81768 14.5319 10.3392L13.2787 15.1433C13.1706 15.5577 13.0754 15.9229 12.9777 16.2069C12.8836 16.4805 12.7355 16.8472 12.4329 17.1257C11.8621 17.651 11.039 17.7989 10.3211 17.5051C9.94053 17.3494 9.67398 17.0572 9.49051 16.8334C9.30013 16.6012 9.08371 16.292 8.83814 15.9411L8.8167 15.9105C8.57136 15.56 8.42018 15.3453 8.30053 15.1996C8.29123 15.1883 8.28262 15.178 8.27467 15.1687C8.2693 15.1797 8.26351 15.1918 8.25733 15.2051C8.17777 15.376 8.0849 15.6216 7.93468 16.0222L7.43633 17.3511C7.24241 17.8682 6.666 18.1302 6.14888 17.9363C5.63176 17.7424 5.36976 17.166 5.56368 16.6489L6.07474 15.286C6.2082 14.9301 6.32801 14.6105 6.44416 14.361C6.55947 14.1133 6.73149 13.7942 7.03335 13.5569C7.61393 13.1003 8.39889 13.0009 9.07496 13.2983C9.42647 13.4529 9.67261 13.7191 9.84602 13.9302C10.0207 14.1429 10.2164 14.4225 10.4344 14.7339L10.4552 14.7636C10.7287 15.1543 10.9011 15.3994 11.0372 15.5654C11.0489 15.5796 11.0596 15.5925 11.0695 15.604C11.0748 15.5898 11.0804 15.574 11.0864 15.5566C11.1562 15.3536 11.2325 15.0637 11.3529 14.6023L12.6065 9.79684C12.7299 9.32367 12.8368 8.91395 12.9447 8.59966C13.0456 8.30599 13.2069 7.89944 13.5445 7.60915" fill="white"/>
</svg>

<svg width="24" height="24" fill="none" xmlns="http://www.w3.org/2000/svg"><path fill-rule="evenodd" clip-rule="evenodd" d="M3 2a1 1 0 0 1 1 1v14c0 .971.002 1.599.064 2.061.059.434.153.57.229.646.076.076.212.17.646.229C5.4 19.998 6.029 20 7 20h14a1 1 0 1 1 0 2H6.934c-.886 0-1.65 0-2.262-.082-.655-.088-1.284-.287-1.793-.797-.51-.51-.709-1.138-.797-1.793C2 18.716 2 17.952 2 17.066V3a1 1 0 0 1 1-1zm17.148.511a1 1 0 0 1 .84 1.137l-.853 5.69v.003m.013-6.83a1 1 0 0 0-1.137.84zm-1.137.84l-.854 5.693zM13.545 7.61a2 2 0 0 1 2.167-.288c.401.193.663.543.837.8.186.275.396.643.64 1.068l.018.032c.306.536.509.89.67 1.13l.046.066a3.29 3.29 0 0 0 .018-.079c.064-.281.125-.683.216-1.291m-3.3.144l.036.05c.138.205.31.506.578.974m-.614-1.024a17.411 17.411 0 0 0-.325 1.149l-1.253 4.803c-.108.415-.204.78-.301 1.064-.094.273-.242.64-.545.919a2 2 0 0 1-2.112.38c-.38-.157-.647-.449-.83-.673-.19-.232-.407-.541-.653-.892l-.021-.03a13.242 13.242 0 0 0-.542-.742 13.226 13.226 0 0 0-.34.854l-.499 1.328a1 1 0 0 1-1.872-.702l.51-1.363c.134-.356.254-.675.37-.925.115-.248.287-.567.59-.804a2 2 0 0 1 2.041-.259c.351.155.598.421.771.632.175.213.37.492.588.804l.021.03a15.114 15.114 0 0 0 .614.84l.017-.047c.07-.203.146-.493.267-.955l1.254-4.805c.123-.473.23-.883.338-1.197.1-.294.262-.7.6-.99" fill="#fff"/></svg>
